frontend/public/icons/media-image-list.svg

<svg width="24" height="24" viewBox="0 0 24 24" fill="none" xmlns="http://www.w3.org/2000/svg">
<path d="M21 7.6V20.4C21 20.7314 20.7314 21 20.4 21H7.6C7.26863 21 7 20.7314 7 20.4V7.6C7 7.26863 7.26863 7 7.6 7H20.4C20.7314 7 21 7.26863 21 7.6Z" stroke="black" stroke-width="1.5" stroke-linecap="round" stroke-linejoin="round"/>
<path d="M18 4H4.6C4.26863 4 4 4.26863 4 4.6V18" stroke="black" stroke-width="1.5" stroke-linecap="round" stroke-linejoin="round"/>
<path d="M7 16.8L12.4444 15L21 18" stroke="black" stroke-width="1.5" stroke-linecap="round" stroke-linejoin="round"/>
<path d="M16.5 13C15.6716 13 15 12.3284 15 11.5C15 10.6716 15.6716 10 16.5 10C17.3284 10 18 10.6716 18 11.5C18 12.3284 17.3284 13 16.5 13Z" stroke="black" stroke-width="1.5" stroke-linecap="round" stroke-linejoin="round"/>
</svg>

<svg xmlns="http://www.w3.org/2000/svg" width="24" height="24" fill="none" viewBox="0 0 24 24">
  <path stroke="#131927" stroke-linecap="round" stroke-linejoin="round" stroke-width="1.5" d="M21 7.6v12.8a.6.6 0 0 1-.6.6H7.6a.6.6 0 0 1-.6-.6V7.6a.6.6 0 0 1 .6-.6h12.8a.6.6 0 0 1 .6.6Z"/>
  <path stroke="#131927" stroke-linecap="round" stroke-linejoin="round" stroke-width="1.5" d="M18 4H4.6a.6.6 0 0 0-.6.6V18m3-1.2 5.444-1.8L21 18m-4.5-5a1.5 1.5 0 1 1 0-3 1.5 1.5 0 0 1 0 3Z"/>
</svg>
